_site/images/gene_regulation/Glutamine_riboswitch_gene_regulation1.svg

<?xml version="1.0" encoding="UTF-8"?><svg id="_图层_1" xmlns="http://www.w3.org/2000/svg" viewBox="0 0 800 400"><defs><style>.cls-1{fill:#e63232;}.cls-1,.cls-2,.cls-3,.cls-4,.cls-5,.cls-6{font-family:ArialMT, Arial;}.cls-1,.cls-2,.cls-4{font-size:21.75px;}.cls-7,.cls-8,.cls-9,.cls-10,.cls-11,.cls-12,.cls-13,.cls-4,.cls-14{fill:#fff;}.cls-15{stroke-dasharray:0 0 4.92 4.92;}.cls-15,.cls-16,.cls-17,.cls-18,.cls-19{fill:none;}.cls-15,.cls-17{stroke:#231815;}.cls-16{stroke:red;}.cls-20{letter-spacing:-.04em;}.cls-8,.cls-9,.cls-10,.cls-11,.cls-12,.cls-13,.cls-14{stroke:#fff;}.cls-8,.cls-21,.cls-22,.cls-19{stroke-miterlimit:10;}.cls-8,.cls-14{stroke-width:.5px;}.cls-9{stroke-width:.25px;}.cls-11{stroke-width:.4px;}.cls-2,.cls-3{fill:#231815;}.cls-21{fill:#ff0304;stroke:#ff0304;}.cls-3{font-size:31.07px;}.cls-12{stroke-width:2px;}.cls-13{stroke-width:1.4px;}.cls-5,.cls-6{font-size:20px;}.cls-23{letter-spacing:-.04em;}.cls-22{fill:#231714;}.cls-22,.cls-19{stroke:#231714;}.cls-24{letter-spacing:-.04em;}.cls-18{stroke:#9d9d9d;}.cls-6{fill:#211815;}</style></defs><path class="cls-17" d="M131.76,157.29c10.56-4.39,22.69,.6,27.08,11.16,4.4,10.56-.6,22.69-11.16,27.08-10.56,4.39-22.68-.6-27.08-11.16-4.4-10.56,.61-22.69,11.16-27.08Z"/><line class="cls-18" x1="208.22" y1="160.95" x2="198.59" y2="137.82"/><line class="cls-18" x1="173.08" y1="176.61" x2="163.46" y2="153.49"/><line class="cls-18" x1="185.54" y1="171.43" x2="175.91" y2="148.3"/><line class="cls-18" x1="197.66" y1="166.38" x2="188.04" y2="143.26"/><line class="cls-17" x1="159.35" y1="181.29" x2="219.99" y2="156.05"/><line class="cls-17" x1="149.91" y1="158.61" x2="210.32" y2="133.46"/><rect class="cls-10" x="140.41" y="160.99" width="20.9" height="21.49" transform="translate(-54.42 71.18) rotate(-22.6)"/><path class="cls-17" d="M285.86,130.56c0,21.09-17.1,38.18-38.19,38.18s-38.18-17.1-38.18-38.18,17.09-38.19,38.18-38.19,38.19,17.1,38.19,38.19Z"/><line class="cls-18" x1="236.71" y1="217.56" x2="261.75" y2="217.56"/><line class="cls-18" x1="237.17" y1="179.1" x2="260.79" y2="179.1"/><line class="cls-18" x1="237.17" y1="192.59" x2="260.79" y2="192.59"/><line class="cls-18" x1="237.17" y1="205.72" x2="260.79" y2="205.72"/><path class="cls-17" d="M236.71,167.12v64.34l-70.23,.14h0"/><path class="cls-17" d="M261.27,167.12c0,26.15-.02,52.31-.03,78.46"/><line class="cls-18" x1="272.09" y1="271.44" x2="272.09" y2="246.39"/><line class="cls-18" x1="284.03" y1="271.62" x2="284.03" y2="246.57"/><line class="cls-16" x1="260.47" y1="272.14" x2="305.04" y2="272.14"/><rect class="cls-14" x="247.7" y="112.68" width="38.28" height="22.04" transform="translate(-25.14 88.29) rotate(-17.96)"/><rect class="cls-9" x="242.59" y="152.61" width="12.63" height="22.54" transform="translate(84.34 412.34) rotate(-89.84)"/><rect class="cls-10" x="203.66" y="133.93" width="22.47" height="21.38" transform="translate(-39.38 95.23) rotate(-22.95)"/><text class="cls-2" transform="translate(145.25 256.27)"><tspan x="0" y="0">5</tspan><tspan class="cls-24" x="12.1" y="0">’</tspan></text><text class="cls-2" transform="translate(235.51 290.45)"><tspan x="0" y="0">3</tspan><tspan class="cls-24" x="12.1" y="0">’</tspan></text><g><g><line class="cls-18" x1="307.07" y1="97.32" x2="315.26" y2="118.29"/><line class="cls-18" x1="294.67" y1="102.17" x2="302.86" y2="123.14"/></g><path class="cls-17" d="M320.02,91.23c-13.9,5.36-27.8,10.72-41.69,16.08"/><path class="cls-17" d="M328.95,114.11c-14.28,5.5-28.56,11-42.85,16.5"/></g><path class="cls-17" d="M346.66,115.47c-10.65,4.16-22.66-1.1-26.83-11.76-4.16-10.66,1.1-22.66,11.76-26.82,10.65-4.16,22.66,1.1,26.83,11.76,4.16,10.66-1.1,22.67-11.76,26.83Z"/><rect class="cls-13" x="313.93" y="91.71" width="23.51" height="20.72" transform="translate(-14.82 125.45) rotate(-21.33)"/><rect class="cls-14" x="238.39" y="245.37" width="21.69" height="16.32" transform="translate(-102.99 205.25) rotate(-37.69)"/><rect class="cls-14" x="237.94" y="223.83" width="18.64" height="21.75"/><path class="cls-17" d="M453.91,156.94c10.56-4.39,22.69,.6,27.08,11.16,4.4,10.56-.6,22.69-11.16,27.08-10.56,4.39-22.68-.6-27.08-11.16-4.4-10.56,.61-22.69,11.16-27.08Z"/><g><line class="cls-18" x1="529.41" y1="161" x2="519.78" y2="137.88"/><line class="cls-18" x1="494.98" y1="176.37" x2="485.35" y2="153.25"/><line class="cls-18" x1="507.19" y1="171.29" x2="497.56" y2="148.17"/><line class="cls-18" x1="519.07" y1="166.35" x2="509.45" y2="143.23"/><line class="cls-17" x1="481.51" y1="180.94" x2="541.99" y2="155.76"/><line class="cls-17" x1="472.07" y1="158.26" x2="532.55" y2="133.09"/></g><rect class="cls-10" x="463.27" y="160.44" width="20.27" height="21.07" transform="translate(-29.35 195.1) rotate(-22.6)"/><path class="cls-17" d="M608.02,130.21c0,21.09-17.1,38.18-38.19,38.18s-38.18-17.1-38.18-38.18,17.09-38.19,38.18-38.19,38.19,17.1,38.19,38.19Z"/><g><line class="cls-18" x1="558.87" y1="217.49" x2="583.91" y2="217.49"/><line class="cls-18" x1="557.9" y1="179.77" x2="582.95" y2="179.77"/><line class="cls-18" x1="557.9" y1="193" x2="582.95" y2="193"/><line class="cls-18" x1="557.9" y1="205.88" x2="582.95" y2="205.88"/><line class="cls-17" x1="558.87" y1="165.57" x2="558.87" y2="231.12"/><path class="cls-17" d="M583.43,165.57c.32,22.01,.65,44.02,.97,66.03"/></g><rect class="cls-14" x="569.85" y="112.34" width="38.28" height="22.04" transform="translate(-9.34 187.6) rotate(-17.96)"/><rect class="cls-11" x="562.5" y="153.29" width="17.35" height="22.1" transform="translate(405.27 735.07) rotate(-89.84)"/><rect class="cls-8" x="530.69" y="131.58" width="21.46" height="22.1" transform="translate(-11.96 227.76) rotate(-23.5)"/><g><g><line class="cls-18" x1="628.82" y1="97.13" x2="637.01" y2="118.11"/><line class="cls-18" x1="616.59" y1="101.91" x2="624.78" y2="122.88"/></g><path class="cls-17" d="M641.58,91.12c-13.7,5.28-27.41,10.57-41.11,15.85"/><path class="cls-17" d="M650.51,114c-14.08,5.42-28.16,10.84-42.25,16.27"/></g><path class="cls-17" d="M668.82,115.13c-10.65,4.16-22.66-1.1-26.83-11.76-4.16-10.66,1.1-22.66,11.76-26.82,10.65-4.16,22.66,1.1,26.83,11.76,4.16,10.66-1.1,22.67-11.76,26.83Z"/><rect class="cls-12" x="635.85" y="92.18" width="23.51" height="19.4" transform="translate(7.3 242.52) rotate(-21.33)"/><line class="cls-17" x1="559.55" y1="231.6" x2="514.49" y2="231.6"/><line class="cls-17" x1="584.41" y1="231.6" x2="631.01" y2="231.6"/><g><path class="cls-17" d="M539.35,105.75c.79,.29,1.57,.58,2.34,.89"/><path class="cls-15" d="M546.22,108.55c49.5,22.25,71.28,79.2,52.17,123.05-16.14,37.02-59.3,59.84-103.89,52.22"/><path class="cls-17" d="M492.08,283.38c-.82-.16-1.63-.33-2.45-.51"/></g><rect class="cls-7" x="477.2" y="233.15" width="152.26" height="65.25"/><text class="cls-2" transform="translate(495.19 242.61)"><tspan x="0" y="0">5</tspan><tspan class="cls-20" x="12.1" y="0">’</tspan></text><text class="cls-2" transform="translate(560.44 276.79)"><tspan x="0" y="0">3</tspan><tspan class="cls-20" x="12.1" y="0">’</tspan></text><g><path class="cls-21" d="M645.93,185.53c0,10.65-13.2,19.29-29.49,19.29s-29.49-8.64-29.49-19.29,13.2-19.29,29.49-19.29,29.49,8.63,29.49,19.29Z"/><text class="cls-4" transform="translate(598.66 193.18)"><tspan x="0" y="0">Gln</tspan></text></g><g><g><line class="cls-22" x1="329.65" y1="220.07" x2="424.15" y2="220.07"/><line class="cls-19" x1="419.65" y1="225.28" x2="424.15" y2="220.07"/><line class="cls-19" x1="419.65" y1="214.87" x2="424.15" y2="220.07"/></g><path class="cls-19" d="M345.5,191.05c0,16.05,24.05,29.03,53.77,29.03"/></g><g><path class="cls-21" d="M374.99,162.24c0,10.65-13.2,19.29-29.49,19.29s-29.49-8.64-29.49-19.29,13.2-19.29,29.49-19.29,29.49,8.63,29.49,19.29Z"/><text class="cls-4" transform="translate(326.16 168.33)"><tspan x="0" y="0">Gln</tspan></text></g><text class="cls-6" transform="translate(229.44 320.29)"><tspan x="0" y="0">‘OFF</tspan><tspan class="cls-23" x="44.43" y="0">’</tspan></text><text class="cls-6" transform="translate(558.61 320.29)"><tspan x="0" y="0">‘ON</tspan><tspan class="cls-23" x="34.44" y="0">’</tspan></text><text class="cls-3" transform="translate(187.71 215.6)"><tspan x="0" y="0">P1</tspan></text><text class="cls-3" transform="translate(142.66 132.28)"><tspan x="0" y="0">P2</tspan></text><text class="cls-3" transform="translate(278.16 69.47)"><tspan x="0" y="0">P3</tspan></text><text class="cls-3" transform="translate(510.82 214.29)"><tspan x="0" y="0">P1</tspan></text><text class="cls-3" transform="translate(467.32 138.16)"><tspan x="0" y="0">P2</tspan></text><text class="cls-3" transform="translate(600.93 86.89)"><tspan x="0" y="0">P3</tspan></text><text class="cls-5" transform="translate(7.45 27.36)"><tspan x="0" y="0">Glutamine-I Riboswitch</tspan></text><line class="cls-17" x1="260.47" y1="246.33" x2="305.76" y2="246.33"/><path class="cls-17" d="M329.59,277.82c-10.65,4.16-22.66-1.1-26.83-11.76-4.16-10.66,1.1-22.66,11.76-26.82,10.65-4.16,22.66,1.1,26.83,11.76,4.16,10.66-1.1,22.67-11.76,26.83Z"/><rect class="cls-7" x="293.87" y="247.14" width="21.75" height="24.08"/><text class="cls-1" transform="translate(259.27 293.22)"><tspan x="0" y="0">RBS</tspan></text><line class="cls-16" x1="585.21" y1="257.37" x2="629.78" y2="257.37"/><path class="cls-17" d="M654.33,263.04c-10.65,4.16-22.66-1.1-26.83-11.76-4.16-10.66,1.1-22.66,11.76-26.82,10.65-4.16,22.66,1.1,26.83,11.76,4.16,10.66-1.1,22.67-11.76,26.83Z"/><rect class="cls-7" x="618.61" y="232.36" width="21.75" height="24.08"/><text class="cls-1" transform="translate(584.45 282.14)"><tspan x="0" y="0">RBS</tspan></text></svg>

<svg id="图层_1" data-name="图层 1" xmlns="http://www.w3.org/2000/svg" viewBox="0 0 800 400"><defs><style>.cls-1,.cls-13,.cls-19,.cls-2,.cls-4{fill:none;}.cls-1,.cls-13{stroke:#231815;}.cls-2{stroke:#9d9d9d;}.cls-10,.cls-11,.cls-12,.cls-14,.cls-17,.cls-3,.cls-5,.cls-6,.cls-9{fill:#fff;}.cls-10,.cls-11,.cls-12,.cls-3,.cls-5,.cls-6,.cls-9{stroke:#fff;}.cls-4{stroke:red;}.cls-11,.cls-5{stroke-width:0.5px;}.cls-6{stroke-width:0.25px;}.cls-17,.cls-24,.cls-7{font-size:21.75px;}.cls-22,.cls-7{fill:#231815;}.cls-17,.cls-20,.cls-22,.cls-23,.cls-24,.cls-7{font-family:ArialMT, Arial;}.cls-8{letter-spacing:-0.04em;}.cls-9{stroke-width:1.4px;}.cls-10{stroke-width:0.4px;}.cls-11,.cls-16,.cls-18,.cls-19{stroke-miterlimit:10;}.cls-12{stroke-width:2px;}.cls-13{stroke-dasharray:4.92 4.92;}.cls-15{letter-spacing:-0.04em;}.cls-16{fill:#ff0304;stroke:#ff0304;}.cls-18{fill:#231714;}.cls-18,.cls-19{stroke:#231714;}.cls-20,.cls-23{font-size:20px;}.cls-20{fill:#211815;}.cls-21{letter-spacing:-0.04em;}.cls-22{font-size:31.07px;}.cls-24{fill:#e63232;}</style></defs><path class="cls-1" d="M131.76,157.29a20.71,20.71,0,1,1-11.16,27.08A20.73,20.73,0,0,1,131.76,157.29Z"/><line class="cls-2" x1="208.22" y1="160.95" x2="198.59" y2="137.82"/><line class="cls-2" x1="173.08" y1="176.61" x2="163.46" y2="153.49"/><line class="cls-2" x1="185.54" y1="171.43" x2="175.91" y2="148.3"/><line class="cls-2" x1="197.66" y1="166.38" x2="188.04" y2="143.26"/><line class="cls-1" x1="159.35" y1="181.29" x2="219.99" y2="156.05"/><line class="cls-1" x1="149.91" y1="158.61" x2="210.32" y2="133.46"/><rect class="cls-3" x="140.41" y="160.99" width="20.9" height="21.49" transform="translate(-54.42 71.18) rotate(-22.6)"/><path class="cls-1" d="M285.86,130.56a38.19,38.19,0,1,1-38.19-38.19A38.18,38.18,0,0,1,285.86,130.56Z"/><line class="cls-2" x1="236.71" y1="217.56" x2="261.75" y2="217.56"/><line class="cls-2" x1="237.17" y1="179.1" x2="260.79" y2="179.1"/><line class="cls-2" x1="237.17" y1="192.59" x2="260.79" y2="192.59"/><line class="cls-2" x1="237.17" y1="205.72" x2="260.79" y2="205.72"/><path class="cls-1" d="M236.71,167.12v64.34l-70.24.14h0"/><path class="cls-1" d="M261.27,167.12q0,39.24,0,78.46"/><line class="cls-2" x1="272.09" y1="271.44" x2="272.09" y2="246.39"/><line class="cls-2" x1="284.03" y1="271.62" x2="284.03" y2="246.57"/><line class="cls-4" x1="260.47" y1="272.14" x2="305.04" y2="272.14"/><rect class="cls-5" x="247.7" y="112.68" width="38.28" height="22.04" transform="translate(-25.14 88.29) rotate(-17.96)"/><rect class="cls-6" x="242.59" y="152.61" width="12.63" height="22.54" transform="translate(84.34 412.34) rotate(-89.84)"/><rect class="cls-3" x="203.66" y="133.93" width="22.47" height="21.38" transform="translate(-39.38 95.23) rotate(-22.95)"/><text class="cls-7" transform="translate(145.25 256.27)">5<tspan class="cls-8" x="12.1" y="0">’</tspan></text><text class="cls-7" transform="translate(235.51 290.45)">3<tspan class="cls-8" x="12.1" y="0">’</tspan></text><line class="cls-2" x1="307.07" y1="97.32" x2="315.26" y2="118.29"/><line class="cls-2" x1="294.67" y1="102.17" x2="302.86" y2="123.14"/><path class="cls-1" d="M320,91.23l-41.7,16.08"/><path class="cls-1" d="M329,114.11l-42.84,16.5"/><path class="cls-1" d="M346.66,115.47a20.71,20.71,0,1,1,11.76-26.83A20.71,20.71,0,0,1,346.66,115.47Z"/><rect class="cls-9" x="313.93" y="91.71" width="23.51" height="20.72" transform="translate(-14.82 125.45) rotate(-21.33)"/><rect class="cls-5" x="238.39" y="245.37" width="21.69" height="16.32" transform="translate(-102.99 205.25) rotate(-37.69)"/><rect class="cls-5" x="237.94" y="223.83" width="18.64" height="21.75"/><path class="cls-1" d="M453.91,156.94A20.72,20.72,0,1,1,442.75,184,20.74,20.74,0,0,1,453.91,156.94Z"/><line class="cls-2" x1="529.41" y1="161" x2="519.78" y2="137.88"/><line class="cls-2" x1="494.98" y1="176.37" x2="485.35" y2="153.25"/><line class="cls-2" x1="507.19" y1="171.29" x2="497.56" y2="148.17"/><line class="cls-2" x1="519.07" y1="166.35" x2="509.45" y2="143.23"/><line class="cls-1" x1="481.51" y1="180.94" x2="541.99" y2="155.76"/><line class="cls-1" x1="472.07" y1="158.26" x2="532.55" y2="133.09"/><rect class="cls-3" x="463.27" y="160.44" width="20.27" height="21.07" transform="translate(-29.35 195.1) rotate(-22.6)"/><path class="cls-1" d="M608,130.21A38.19,38.19,0,1,1,569.83,92,38.19,38.19,0,0,1,608,130.21Z"/><line class="cls-2" x1="558.87" y1="217.49" x2="583.91" y2="217.49"/><line class="cls-2" x1="557.9" y1="179.77" x2="582.95" y2="179.77"/><line class="cls-2" x1="557.9" y1="193" x2="582.95" y2="193"/><line class="cls-2" x1="557.9" y1="205.88" x2="582.95" y2="205.88"/><line class="cls-1" x1="558.87" y1="165.57" x2="558.87" y2="231.12"/><path class="cls-1" d="M583.43,165.57l1,66"/><rect class="cls-5" x="569.85" y="112.34" width="38.28" height="22.04" transform="translate(-9.34 187.6) rotate(-17.96)"/><rect class="cls-10" x="562.5" y="153.29" width="17.35" height="22.1" transform="translate(405.27 735.07) rotate(-89.84)"/><rect class="cls-11" x="530.69" y="131.58" width="21.46" height="22.1" transform="translate(-11.96 227.76) rotate(-23.5)"/><line class="cls-2" x1="628.82" y1="97.13" x2="637.01" y2="118.11"/><line class="cls-2" x1="616.59" y1="101.91" x2="624.78" y2="122.88"/><path class="cls-1" d="M641.58,91.12,600.47,107"/><path class="cls-1" d="M650.51,114l-42.25,16.26"/><path class="cls-1" d="M668.82,115.13A20.71,20.71,0,1,1,680.58,88.3,20.72,20.72,0,0,1,668.82,115.13Z"/><rect class="cls-12" x="635.85" y="92.18" width="23.51" height="19.4" transform="translate(7.3 242.52) rotate(-21.33)"/><line class="cls-1" x1="559.55" y1="231.6" x2="514.49" y2="231.6"/><line class="cls-1" x1="584.41" y1="231.6" x2="662.5" y2="231.5"/><path class="cls-1" d="M539.35,105.75c.79.29,1.56.59,2.34.89"/><path class="cls-13" d="M546.22,108.55c49.51,22.25,71.28,79.2,52.17,123.05-16.14,37-59.3,59.84-103.89,52.22"/><path class="cls-1" d="M492.08,283.38l-2.45-.51"/><rect class="cls-14" x="477.2" y="233.15" width="152.26" height="65.25"/><text class="cls-7" transform="translate(495.19 242.61)">5<tspan class="cls-15" x="12.1" y="0">’</tspan></text><text class="cls-7" transform="translate(560.44 276.79)">3<tspan class="cls-15" x="12.1" y="0">’</tspan></text><path class="cls-16" d="M645.93,185.53c0,10.65-13.2,19.29-29.49,19.29S587,196.18,587,185.53s13.2-19.28,29.49-19.28S645.93,174.88,645.93,185.53Z"/><text class="cls-17" transform="translate(598.66 193.18)">Gln</text><line class="cls-18" x1="329.65" y1="220.07" x2="424.15" y2="220.07"/><line class="cls-19" x1="419.65" y1="225.28" x2="424.15" y2="220.07"/><line class="cls-19" x1="419.65" y1="214.87" x2="424.15" y2="220.07"/><path class="cls-19" d="M345.5,191.05c0,16,24.05,29,53.77,29"/><path class="cls-16" d="M375,162.24c0,10.65-13.2,19.29-29.49,19.29S316,172.89,316,162.24,329.21,143,345.5,143,375,151.59,375,162.24Z"/><text class="cls-17" transform="translate(326.16 168.33)">Gln</text><text class="cls-20" transform="translate(229.44 320.29)">‘OFF<tspan class="cls-21" x="44.43" y="0">’</tspan></text><text class="cls-20" transform="translate(558.61 320.29)">‘ON<tspan class="cls-21" x="34.44" y="0">’</tspan></text><text class="cls-22" transform="translate(187.71 215.6)">P1</text><text class="cls-22" transform="translate(142.66 132.28)">P2</text><text class="cls-22" transform="translate(278.16 69.47)">P3</text><text class="cls-22" transform="translate(510.82 214.29)">P1</text><text class="cls-22" transform="translate(467.32 138.16)">P2</text><text class="cls-22" transform="translate(600.93 86.89)">P3</text><text class="cls-23" transform="translate(7.45 27.36)">Glutamine-I Riboswitch</text><line class="cls-1" x1="260.47" y1="246.33" x2="305.76" y2="246.33"/><path class="cls-1" d="M329.59,277.82A20.71,20.71,0,1,1,341.35,251,20.72,20.72,0,0,1,329.59,277.82Z"/><rect class="cls-14" x="293.87" y="247.14" width="21.75" height="24.08"/><text class="cls-24" transform="translate(259.27 293.22)">RBS</text><line class="cls-4" x1="615.21" y1="231.37" x2="659.78" y2="231.37"/><text class="cls-24" transform="translate(613.45 258.14)">RBS</text></svg>
